X:1
T:Two Little Hands
T:Two Little Hands
T:William Augustine Ogden
T:William Augustine Ogden, 1878
T:Public Domain Courtesy of the Cyber Hymnal™
C:William Augustine Ogden
Z:Public Domain
Z:Courtesy of the Cyber Hymnal™
%%score ( 1 2 ) ( 3 4 )
L:1/8
Q:1/4=78
M:2/4
K:D
V:1 treble 
V:2 treble 
V:3 bass 
V:4 bass 
V:1
 D | FF/E/ DE | FE FA | AA/B/ AF | EE E2 | FF/E/ DE | FE FA | AA/B/ AF | EE D2 || %9
w: 1.~I’ve|two lit- tle hands to|work for Je- sus,|One lit- tle tongue His|praise to tell,|Two lit- tle ears to|hear His coun- sel,|One lit- tle voice a|song to swell.|
w: 2.~I’ve|two lit- tle feet to|tread the path- way|Up to the heav’n- ly|courts a- bove;|Two lit- tle eyes to|read the Bi- ble,|Tell- ing of Je- sus’|won- drous love.|
w: 3.~I’ve|one lit- tle heart to|give to Je- sus,|One lit- tle soul for|Him to save;|One lit- tle life for|His dear ser- vice,|One lit- tle self that|He must have.|
"^Refrain" [DF][FA] [Fd]2 | G[GB] [Gd]2 | [FA][GB] [FA][DF] | [CE][CE] [CE][EG] | [DF][FA] [Fd]2 | %14
w: |||||
w: Lord, we come,|Lord, we come,|In our child- hood’s|ear- ly morn- ing;|Lord, we come,|
w: |||||
 G[GB] [Gd]2 | [Gc][GA] [CG][CE] | D3 |] %17
w: |||
w: Lord, we come,|Come to learn of|Thee.|
w: |||
V:2
 x | x4 | x4 | x4 | x4 | x4 | x4 | x4 | x4 || x4 | G x3 | x4 | x4 | x4 | G x3 | x4 | D3 |] %17
V:3
 z | [D,,D,]4- | [D,,D,]4- | [D,,D,]4 | E,,2 A,,2 | [D,,D,]4- | [D,,D,]4- | [D,,D,]4 | A,,2 D,2 || %9
 [D,A,][D,D] [D,A,]2 | [G,B,][G,D] [G,B,]2 | [D,D][D,D] [D,D][D,A,] | %12
 [A,,A,][A,,A,] [A,,A,][A,,A,] | [D,A,][D,D] [D,A,]2 | [G,B,][G,D] [G,B,]2 | %15
 A,[A,C] [A,,A,][A,,G,] | [D,F,]3 |] %17
V:4
 x | x4 | x4 | x4 | x4 | x4 | x4 | x4 | x4 || x4 | x4 | x4 | x4 | x4 | x4 | A, x3 | x3 |] %17

